src/assets/filled/Link1.svg

<svg width="24" height="24" viewBox="0 0 24 24"  xmlns="http://www.w3.org/2000/svg">
<path d="M15.4101 18.59C15.0101 18.59 14.6801 18.26 14.6801 17.86C14.6801 17.46 15.0101 17.13 15.4101 17.13C18.2301 17.13 20.5301 14.83 20.5301 12.01C20.5301 9.19004 18.2301 6.89004 15.4101 6.89004C12.5901 6.89004 10.2901 9.19004 10.2901 12.01C10.2901 12.41 9.96008 12.74 9.56008 12.74C9.16008 12.74 8.83008 12.41 8.83008 12.01C8.83008 8.38004 11.7801 5.42004 15.4201 5.42004C19.0601 5.42004 22.0001 8.37004 22.0001 12C22.0001 15.63 19.0501 18.59 15.4101 18.59Z" />
<path d="M8.59 5.41003C8.99 5.41003 9.32 5.74003 9.32 6.14003C9.32 6.54003 8.99 6.87003 8.59 6.87003C5.77 6.87003 3.47 9.17003 3.47 11.99C3.47 14.81 5.77 17.11 8.59 17.11C11.41 17.11 13.71 14.81 13.71 11.99C13.71 11.59 14.04 11.26 14.44 11.26C14.84 11.26 15.17 11.59 15.17 11.99C15.17 15.62 12.22 18.58 8.58 18.58C4.94 18.58 2 15.63 2 12C2 8.37003 4.95 5.41003 8.59 5.41003Z" />
</svg>

<?xml version="1.0" encoding="UTF-8"?>
<svg width="24" height="24" viewBox="0 0 24 24" xmlns="http://www.w3.org/2000/svg">
 <path d="m15.41 18.59c-0.4 0-0.73-0.33-0.73-0.73s0.33-0.73 0.73-0.73c2.82 0 5.12-2.3 5.12-5.12 0-2.82-2.3-5.12-5.12-5.12s-5.12 2.3-5.12 5.12c0 0.4-0.33002 0.73-0.73002 0.73s-0.73-0.33-0.73-0.73c0-3.63 2.95-6.59 6.59-6.59s6.58 2.95 6.58 6.58c0 3.63-2.95 6.59-6.59 6.59z"/>
 <path d="m8.59 5.41c0.4 0 0.73 0.33 0.73 0.73s-0.33 0.73-0.73 0.73c-2.82 0-5.12 2.3-5.12 5.12 0 2.82 2.3 5.12 5.12 5.12s5.12-2.3 5.12-5.12c0-0.4 0.33-0.73 0.73-0.73s0.73 0.33 0.73 0.73c0 3.63-2.95 6.59-6.59 6.59s-6.58-2.95-6.58-6.58c0-3.63 2.95-6.59 6.59-6.59z"/>
</svg>
